X: 1
T: Blanchard's Hornpipe
B: Ryan's Mammoth Collection
A: arr. T. Traub 11-01-1998
R: hornpipe
M: 4/4
L: 1/8
K: A
E2 |\
"A"AGAc ecAc | "D"dcdf "A"ecAc |\
"D"d2 fd "A"c2 ec | "Bm"BABc "E"BdcB |\
"A"AGAc ecAc |
"D"dcdf "A"ecAg |\
"D"agaf "E"edcB | "A"A2 A2 A2 :: (3efg |\
"A"aece fece | "A"aece fece |
"A"agag "F#m"fedc | "Bm"BABc "E"BdcB |\
"A"AGAc ecAc | "D"dcdf "A"ecAg |\
"D"agaf "E"edcB | "A"A2 A2 A2 :|
